apps/spreadsheeteditor/main/resources/img/toolbar/2.5x/big/btn-logic.svg

<svg width="28" height="28" viewBox="0 0 28 28" fill="none" xmlns="http://www.w3.org/2000/svg">
<path d="M11.9961 19V18.4902C11.9961 17.4492 12.1527 16.5986 12.4658 15.9385C12.7874 15.2783 13.3757 14.5716 14.2305 13.8184L15.3857 12.8154C15.9951 12.2992 16.431 11.7871 16.6934 11.2793C16.9557 10.7715 17.0869 10.1875 17.0869 9.52734C17.0869 8.45247 16.7314 7.59766 16.0205 6.96289C15.318 6.32812 14.3913 6.01074 13.2402 6.01074C12.5716 6.01074 11.9453 6.08691 11.3613 6.23926C10.7773 6.38314 10.1468 6.62012 9.46973 6.9502L9 5.93457C9.93099 5.52832 10.7096 5.25749 11.3359 5.12207C11.9707 4.98665 12.6224 4.91895 13.291 4.91895C14.8398 4.91895 16.0586 5.33789 16.9473 6.17578C17.8359 7.00521 18.2803 8.14779 18.2803 9.60352C18.2803 10.179 18.2041 10.6826 18.0518 11.1143C17.8994 11.5459 17.6836 11.9479 17.4043 12.3203C17.1335 12.6842 16.8034 13.0397 16.4141 13.3867C16.0247 13.7253 15.5931 14.0934 15.1191 14.4912C14.5775 14.9482 14.1585 15.3672 13.8623 15.748C13.5745 16.1204 13.363 16.514 13.2275 16.9287C13.1006 17.3434 13.0371 17.9613 13.0371 18.7822V19H11.9961ZM11.5771 22.7559C11.5771 21.9264 11.9157 21.5117 12.5928 21.5117C13.2868 21.5117 13.6338 21.9264 13.6338 22.7559C13.6338 23.5853 13.2868 24 12.5928 24C11.9157 24 11.5771 23.5853 11.5771 22.7559Z" fill="black"/>
</svg>

<svg xmlns="http://www.w3.org/2000/svg" width="28" height="28" fill="none"><path fill="#000" d="M11.996 19v-.51c0-1.04.157-1.891.47-2.551.321-.66.91-1.367 1.764-2.12l1.156-1.004c.61-.516 1.045-1.028 1.307-1.536.263-.508.394-1.091.394-1.752 0-1.075-.356-1.93-1.067-2.564-.702-.635-1.629-.952-2.78-.952-.668 0-1.295.076-1.879.228a9.612 9.612 0 0 0-1.891.711L9 5.935c.931-.407 1.71-.678 2.336-.813a9.345 9.345 0 0 1 1.955-.203c1.549 0 2.768.419 3.656 1.257.889.83 1.333 1.972 1.333 3.428 0 .575-.076 1.079-.228 1.51a4.493 4.493 0 0 1-.648 1.206c-.27.364-.6.72-.99 1.067-.39.338-.82.706-1.295 1.104-.541.457-.96.876-1.257 1.257a3.943 3.943 0 0 0-.635 1.18c-.126.415-.19 1.033-.19 1.854V19h-1.04Zm-.419 3.756c0-.83.339-1.244 1.016-1.244.694 0 1.04.414 1.04 1.244 0 .83-.346 1.244-1.04 1.244-.677 0-1.016-.415-1.016-1.244Z"/></svg>
